!!!COM: Hummel, Johann Nepomuk
!!!CDT: 1778/11/14-1837/10/17
!!!OTL: Prelude in E-flat minor, op. 67, no. 14
!!!OPS: 67
!!!ONM: 14
!!!OMD: Alla cappella.
!!!ODT: 1815
!!!AIN: piano
**kern	**kern	**dynam
*staff2	*staff1	*staff1/2
*Ipiano	*Ipiano	*
*I"14	*I"14	*
*clefF4	*clefG2	*
*k[b-e-a-d-g-c-]	*k[b-e-a-d-g-c-]	*
*e-:	*e-:	*
*M2/2	*M2/2	*
*met(c|)	*met(c|)	*
*MM120	*MM120	*
=1-	=1-	=1-
*	*^	*
2.EE- 2.E-	4r	4r	.
!	!	!	!LO:DY:rj
.	4g-	4G- 4B-	f
.	[2f	2A- 2c-	.
((4DDn 4Dn	.	.	.
=2	=2	=2	=2
2.GG- 2.G-))	4f]	2B-	.
.	4e-	.	.
.	2e- [2a-	4cn	.
((4FF 4F	.	4c-	.
=3	=3	=3	=3
2.BB- 2.B-))	4a-]	4dn	.
*	*	*^	*
.	4gn	2e-/	4d-	.
.	2cc-	.	4c-	.
*	*	*v	*v	*
[4AA- ([4A-	.	4f- 4a-	.
=4	=4	=4	=4
4AA-] 4A-]	2b-	4dn 4fn	.
4GG- 4G-)	.	2e- 2g-X	.
(4CCn 4Cn	4an	.	.
4DDn 4Dn	4a-	4c-X 4f	.
=5	=5	=5	=5
*	*^	*	*
4EE- 4E-	4gn	2.e-/	4B-	.
4AAAn 4AAn	4g-	.	4cn	.
2BBB- 2BB-	[2f	.	[2A-	.
.	.	[4c-/^ [4dn/^	.	.
*	*v	*v	*v	*
=6	=6	=6
*	*^	*
2..EE-) 2..E-	2c-] 2d] 2f]	2A-]	p
.	2B- 2e-	2G-	.
(16BB-LL	.	.	.
16GG-JJ	.	.	.
*	*v	*v	*
=7	=7	=7
1EE-)	1r	.
==	==	==
*-	*-	*-
!!!ENC: Craig Stuart Sapp
!!!END: 2008/06/13
!!!EED: Craig Sutart Sapp
!!!EEV: 2020/09/04
!!!YEC: Copyright 2008 by Craig Stuart Sapp
!!!YEN: United States of America
